src/images/std-icons/std-less.svg

<svg xmlns="http://www.w3.org/2000/svg" width="512" height="512" viewBox="0 0 512 512">
  <title>less</title>
  <path fill="#000" fill-rule="nonzero" d="M256.001707,64.0066133 C149.963035,64.0066133 64.0017067,149.967941 64.0017067,256.006613 C64.0017067,362.045285 149.963035,448.006613 256.001707,448.006613 C362.040379,448.006613 448.001707,362.045285 448.001707,256.006613 C448.001707,149.967941 362.040379,64.0066133 256.001707,64.0066133 Z M256.001707,405.339947 C173.527184,405.339947 106.668373,338.481136 106.668373,256.006613 C106.668373,173.532091 173.527184,106.67328 256.001707,106.67328 C338.476229,106.67328 405.33504,173.532091 405.33504,256.006613 C405.241693,338.442439 338.437533,405.2466 256.001707,405.339947 Z"/>
  <path fill="#000" fill-rule="nonzero" d="M316.341547,195.666773 C307.99576,187.370381 294.51688,187.370381 286.171093,195.666773 L256.001707,225.837227 L225.831253,195.666773 C220.441821,190.277531 212.586654,188.172894 205.224717,190.145659 C197.86278,192.118423 192.112527,197.868879 190.140023,205.230885 C188.167519,212.592892 190.272434,220.447985 195.661867,225.837227 L225.831253,256.006613 L195.661867,286.177067 C190.22065,291.555824 188.076476,299.436551 190.042478,306.83065 C192.00848,314.22475 197.78357,319.99984 205.17767,321.965842 C212.571769,323.931844 220.452496,321.78767 225.831253,316.346453 L256.001707,286.177067 L286.171093,316.346453 C291.560335,321.735886 299.415428,323.8408 306.777434,321.868296 C314.139441,319.895792 319.889897,314.145539 321.862661,306.783603 C323.835425,299.421666 321.730789,291.566499 316.341547,286.177067 L286.171093,256.006613 L316.341547,225.837227 C324.637239,217.491152 324.637239,204.012848 316.341547,195.666773 L316.341547,195.666773 Z"/>
</svg>

<svg xmlns="http://www.w3.org/2000/svg" viewBox="0 0 512 512">
  <title>
    less
  </title>
  <path d="M256 64C149.96 64 64 149.98 64 256c0 106.05 85.96 192 192 192s192-85.95 192-192c0-106.03-85.96-192-192-192zm0 341.34c-82.47 0-149.33-66.86-149.33-149.33 0-82.48 66.86-149.34 149.33-149.34 82.48 0 149.34 66.86 149.34 149.34-.1 82.43-66.9 149.24-149.34 149.33z"/>
  <path d="M316.34 195.67a21.4 21.4 0 0 0-30.17 0L256 225.84l-30.17-30.17a21.33 21.33 0 1 0-30.17 30.17L225.83 256l-30.17 30.17a21.33 21.33 0 1 0 30.17 30.17L256 286.18l30.17 30.17a21.33 21.33 0 1 0 30.17-30.17L286.17 256l30.17-30.17a21.4 21.4 0 0 0 0-30.17z"/>
</svg>
